X:26
T:Stranger’s Hornpipe,3parts. JNu.25
T:Durham Ranger,aka. JNu.25
T:Lord Middleton’s HP,aka. JNu.25
M:4/4
L:1/8
Q:1/2=90
S:James Nuttall MS,c1830?,Rossendale,East Lancs.
R:.Hornpipe
O:England
A:East Lancashire
Z:vmp.Manchester Morris Men
V:1
V:2
V:3 clef=bass
K:D
[V:1] |: FG | ABAF A2 de | fgfe dcBA | dcdB ABAF | G2 E2 E2 FG |
[V:2] |: z2 | FGFDF2z2 | dedc BAGF | A2AG F2ED | C2C2C2z2 |
[V:3] |: z2 | D,2D,2D,2z2 | D,2D,2D,2z2 | D,2D,2D,2z2 | A,2A,2 A,G,F,E, |
%
[V:1] ABAF A2 de | fgfe dcBA | dcdB ABAG | F2 D2 D2 😐
[V:2] FGADF2z2 | dedc BAGF | A2GFG2FE | F2F2F2 😐
[V:3] D,2D,2D,2z2 | D,2D,2D,2z2 | D,2F,2A,2A,,2 | D,2D,2D,2 😐
%
[V:1] |: A2 | defg a2 ef | gfed dcBA | efec A2 de | f2 e2 e2 FG |
[V:2] |: F2 | Acdef2cd | edcB AGFE | cdcAE2Bc | d2c2c2z2 |
[V:3] |: z2 | D,2A,2D,2z2 | G,2G,2A,2z2 | A,2A,2A,2z2 | A,2A,2A,2z2 |
%
[V:1] ABAF A2 de | fgfe dcBA | dcdB ABAG | F2 D2 D2 😐
[V:2] FGFDF2z2 | dedc BAGF | A2G2AGFE | F2[A,2F2][A,2F2] 😐
[V:3] D,2D,2D,2z2 | D,2D,2D,2z2 | F,2G,2A,2A,,2 | D,2D,2D,2 😐

